X: 125004
M: 3/4
L: 1/4
K: D
|: A/G/ |\
d/e/ |\
fef | afe | dBc | d2 d/e/ |\
fgf | ede | "_D.C. to Allegro."fdB | B2 :|


